svgs/sharp-solid/gamepad-modern.svg

<svg xmlns="http://www.w3.org/2000/svg" viewBox="0 0 640 512"><!--! Font Awesome Pro 6.6.0 by @fontawesome - https://fontawesome.com License - https://fontawesome.com/license (Commercial License) Copyright 2024 Fonticons, Inc. --><path d="M0 480l200 0 16-96 208 0 16 96 200 0L597.2 96 480 32 320 32 160 32 42.8 96 0 480zM432 232a40 40 0 1 1 0 80 40 40 0 1 1 0-80zm24-56a40 40 0 1 1 80 0 40 40 0 1 1 -80 0zm-240-8l0 32 32 0 24 0 0 48-24 0-32 0 0 32 0 24-48 0 0-24 0-32-32 0-24 0 0-48 24 0 32 0 0-32 0-24 48 0 0 24z"/></svg>

<svg xmlns="http://www.w3.org/2000/svg" viewBox="0 0 640 512"><!--! Font Awesome Pro 6.5.2 by @fontawesome - https://fontawesome.com License - https://fontawesome.com/license (Commercial License) Copyright 2024 Fonticons, Inc. --><path d="M0 480H200l16-96H424l16 96H640L597.2 96 480 32H320 160L42.8 96 0 480zM432 232a40 40 0 1 1 0 80 40 40 0 1 1 0-80zm24-56a40 40 0 1 1 80 0 40 40 0 1 1 -80 0zm-240-8v32h32 24v48H248 216v32 24H168V280 248H136 112V200h24 32V168 144h48v24z"/></svg>
